X:76
L:1/8
Q:1/4=120
M:3/4
K:C
 c3 e d2 | d3 f e2 | c2 d2 e2 | f2 d2 z2 | !wedge!f!wedge!e!wedge!d!wedge!c!wedge!B!wedge!A | 
 G4 AB | cf e2 d2 |{d} c6 :: g3 agf | e2 ed ef | g2 (gf)(fe) | (ed) !wedge!c!wedge!B AG | 
 c2 (c/B/c/d/) e2 | A2 (A/G/A/B/) c2 | de fd ec | B2 d/c/B/A/ G2 | c3 e d2 | d3 f e2 | c2 d2 e2 | 
 f2 d2 z2 | !wedge!f!wedge!e!wedge!d!wedge!c!wedge!B!wedge!A | G4 AB | cf e2 d2 |{d} c6 :: 
 (EG) !wedge!c!wedge!c!wedge!c!wedge!c | (FA) !wedge!d!wedge!d!wedge!d!wedge!d | (FG) c2 (3(cde) | 
 !wedge!f!wedge!e!wedge!d!wedge!c!wedge!B!wedge!A | (EG) !wedge!c!wedge!c!wedge!c!wedge!c | 
 (FA) !wedge!d!wedge!d!wedge!d!wedge!d | (EG) c2 TB2 |{B} c6 :: G4 AB | c4 ec | G2 F2 E2 | TE2 D4 | 
 G4 AB | c4 ec | Gg gf fe | e2 d2 z2 | (EG) !wedge!c!wedge!c!wedge!c!wedge!c | 
 (FA) !wedge!d!wedge!d!wedge!d!wedge!d | (FG) c2 (3(cde) | 
 !wedge!f!wedge!e!wedge!d!wedge!c!wedge!B!wedge!A | (EG) !wedge!c!wedge!c!wedge!c!wedge!c | 
 (FA) !wedge!d!wedge!d!wedge!d!wedge!d | (EG) c2 TB2 |{B} c6 :|

